public/assets/images/utils/ubic.svg

<svg width="14" height="18" viewBox="0 0 14 18" fill="none" xmlns="http://www.w3.org/2000/svg">
<path d="M6.875 3.75C6.25693 3.75 5.65275 3.93328 5.13884 4.27666C4.62494 4.62004 4.2244 5.1081 3.98788 5.67911C3.75135 6.25013 3.68947 6.87847 3.81005 7.48466C3.93062 8.09085 4.22825 8.64767 4.66529 9.08471C5.10233 9.52175 5.65915 9.81938 6.26534 9.93995C6.87153 10.0605 7.49987 9.99865 8.07089 9.76212C8.6419 9.5256 9.12996 9.12506 9.47334 8.61116C9.81672 8.09725 10 7.49307 10 6.875C10 6.0462 9.67076 5.25134 9.08471 4.66529C8.49866 4.07924 7.7038 3.75 6.875 3.75ZM6.875 8.75C6.50416 8.75 6.14165 8.64003 5.83331 8.43401C5.52496 8.22798 5.28464 7.93514 5.14273 7.59253C5.00081 7.24992 4.96368 6.87292 5.03603 6.50921C5.10837 6.14549 5.28695 5.8114 5.54917 5.54917C5.8114 5.28695 6.14549 5.10837 6.50921 5.03603C6.87292 4.96368 7.24992 5.00081 7.59253 5.14273C7.93514 5.28464 8.22798 5.52496 8.43401 5.83331C8.64003 6.14165 8.75 6.50416 8.75 6.875C8.75 7.37228 8.55246 7.84919 8.20083 8.20083C7.84919 8.55246 7.37228 8.75 6.875 8.75ZM6.875 0C5.05227 0.00206776 3.30479 0.72706 2.01592 2.01592C0.72706 3.30479 0.00206776 5.05227 0 6.875C0 9.32812 1.13359 11.9281 3.28125 14.3945C4.24627 15.509 5.33239 16.5126 6.51953 17.3867C6.62462 17.4603 6.74982 17.4998 6.87812 17.4998C7.00643 17.4998 7.13163 17.4603 7.23672 17.3867C8.42168 16.5123 9.50569 15.5087 10.4688 14.3945C12.6133 11.9281 13.75 9.32812 13.75 6.875C13.7479 5.05227 13.0229 3.30479 11.7341 2.01592C10.4452 0.72706 8.69773 0.00206776 6.875 0ZM6.875 16.0938C5.58359 15.0781 1.25 11.3477 1.25 6.875C1.25 5.38316 1.84263 3.95242 2.89752 2.89752C3.95242 1.84263 5.38316 1.25 6.875 1.25C8.36684 1.25 9.79758 1.84263 10.8525 2.89752C11.9074 3.95242 12.5 5.38316 12.5 6.875C12.5 11.3461 8.16641 15.0781 6.875 16.0938Z" fill="#65636D"/>
</svg>

<svg xmlns="http://www.w3.org/2000/svg" fill="none" viewBox="0 0 14 18"><path fill="#65636d" d="M6.875 3.75a3.125 3.125 0 1 0 0 6.25 3.125 3.125 0 0 0 0-6.25m0 5a1.875 1.875 0 1 1 0-3.75 1.875 1.875 0 0 1 0 3.75m0-8.75A6.883 6.883 0 0 0 0 6.875c0 2.453 1.134 5.053 3.281 7.52a20 20 0 0 0 3.239 2.992.625.625 0 0 0 .717 0 20 20 0 0 0 3.232-2.992c2.144-2.467 3.281-5.067 3.281-7.52A6.883 6.883 0 0 0 6.875 0m0 16.094C5.584 15.078 1.25 11.348 1.25 6.875a5.625 5.625 0 0 1 11.25 0c0 4.471-4.334 8.203-5.625 9.219"/></svg>
